icons/bun.svg

<svg width="16" height="16" viewBox="0 0 16 16" fill="none" xmlns="http://www.w3.org/2000/svg">
<path fill-rule="evenodd" clip-rule="evenodd" d="M6.61578 2.26575C6.29839 2.56287 5.92165 2.7966 4.6087 3.82608C2.90747 5.15999 1.21739 6.844 1.21739 9.06719C1.21739 11.5336 2.98677 14 7.7051 14C12.5687 14 14.7826 12.1502 14.7826 9.06719C14.7826 6.60078 13.1607 5.05928 11.3913 3.82608C11.1007 3.62356 10.7818 3.41793 10.4534 3.20612C9.44828 2.55802 8.35335 1.85198 7.7051 1C7.08391 1.75197 6.86869 2.02899 6.61578 2.26575ZM10.2609 9.47826C10.8852 9.47826 11.3913 8.97215 11.3913 8.34783C11.3913 7.72351 10.8852 7.21739 10.2609 7.21739C9.63655 7.21739 9.13043 7.72351 9.13043 8.34783C9.13043 8.97215 9.63655 9.47826 10.2609 9.47826ZM5.73913 9.47828C6.36345 9.47828 6.86956 8.97216 6.86956 8.34784C6.86956 7.72352 6.36345 7.21741 5.73913 7.21741C5.11481 7.21741 4.60869 7.72352 4.60869 8.34784C4.60869 8.97216 5.11481 9.47828 5.73913 9.47828ZM6.86956 10.6087C6.86956 10.9855 7.09565 11.7391 8 11.7391C8.90435 11.7391 9.13043 10.9855 9.13043 10.6087H6.86956Z" fill="#AAA596"/>
</svg>

<svg xmlns="http://www.w3.org/2000/svg" width="16" height="16" fill="none"><path fill="#9A968B" fill-rule="evenodd" d="M6.616 2.266c-.318.297-.694.53-2.007 1.56C2.907 5.16 1.217 6.844 1.217 9.067c0 2.467 1.77 4.933 6.488 4.933 4.864 0 7.078-1.85 7.078-4.933 0-2.466-1.622-4.008-3.392-5.24-.29-.203-.61-.41-.938-.62C9.448 2.557 8.353 1.851 7.705 1c-.621.752-.836 1.029-1.09 1.266Zm3.645 7.212a1.13 1.13 0 1 0 0-2.26 1.13 1.13 0 0 0 0 2.26Zm-4.522 0a1.13 1.13 0 1 0 0-2.26 1.13 1.13 0 0 0 0 2.26Zm1.13 1.13c0 .377.227 1.131 1.131 1.131s1.13-.754 1.13-1.13H6.87Z" clip-rule="evenodd"/></svg>
